X:0
K:A
M:3/4
L: 1/4
T:The Good Doctor
T:Copyright 2015, Stephan R.A. Deibel
|:e|"A"a2g|c2e/f/|"E"e2d/c/|B2B/c/|"Bm"dde|"E"fag|"A"c3|"E"B2e|
"A"a2g|c2e/f/|"Bm"e2d/c/|"E"B2B/c/|"Bm"ded|"E"cdB|"A"(A3|A2):|
|:A/A/|"E"B2E|EAB|"A"c2E|EAB|"Bm"cde|"E"fag|"A"c3|B2c|
"E"def|fag|"A"aec|"F#m"cAE|"Bm"EAc|"E"B2c/B/|"A"(A3|A2):|